X:1
T:Title
%%score { ( 1 4 ) | ( 2 3 ) }
L:1/8
Q:1/4=100
M:4/4
K:Eb
V:1 treble nm="Grand Piano"
V:4 treble 
V:2 bass 
V:3 bass 
V:1
 [B,EG]2 [B,EG]2 [_DGB]4 | [CFA]2 [CFA]2 [A,CF]4 | [G,B,E]2 [G,B,E]2 [B,EF]2 [B,DF]2 | [B,EG]6 z2 | %4
w: I.~H.~Meredith * *||||
 [B,EG]2 [=B,FG]2 [Ee]4 | d2 d2 F4 | G2 c2 d2 =A2 |[M:2/4] [DB]4 | %8
w: ||||
[M:11/16] [GB]/-[GB]/-[GB]/-[GB]/-[GB]/-[GB]-<[GB]A |[M:4/4] [EG]>F G>A [EG]2 [G,B,CG]2 | %10
w: ||
 [DA]2 [DA]4 c>B | [FA]>G A>B [FA]2 [B,A]2 | [GB]6 z2 | [Bg]>_g [B=g]>a [Bg]2 [Ge]2 | %14
w: ||||
 z2 [Af]4[K:bass][K:treble] z2 | [ca]>g [ca]>b [ca]2 [Af]2 | [Bg]6 z2 | %17
w: |||
 [EG]>F G>A [EG]2 [G,B,CG]2 | [DA]2 B,2 z2 c>B | [FA]>G A>B [FA]2 [B,A]2 | [GB]6 z2 | %21
w: ||||
 [Bg]>_g [B=g]>[=Bf] [c=e]2 [C=EG_B]2 | [B_d]2 [Ac]2 [CA]2 [CAc]2 | [GB]>=A B>c [GB]2 [B,DF_A]2 | %24
w: |||
 [EG]6[K:bass] z2 |] %25
w: |
V:2
 E,2 E,2 =E,4 | F,2 F,2 A,,4 | B,,2 B,,2 B,,2 B,,2 | E,6 z2 | E,2 D,2 [C,C]4 | %5
 [F,B,F]2 [F,B,F]2 [D,B,]4 | [E,B,E]2 [E,G,E]2 [F,=A,E]2 [F,CE]2 |[M:2/4] [B,,B,]4 | %8
[M:11/16] [A,B,D]-<[A,B,D] z/ z/ z/ z F |[M:4/4] z z/ D/ E>F E,,2 E,2 | z4 z2[K:treble] [A,B,D]2 | %11
 z z/ =E/[K:treble] F>G[K:bass] B,,2 [B,,D,]2 | E,,2 E,2 G,2[K:treble] G>A | %13
 z z/[K:treble] =A/ z z/ c/[K:bass] E,,2 [G,B,E]2 | B,,2 [A,B,D]2 z2[K:treble] A>B | %15
 z z/[K:treble] =B/ z z/ d/[K:bass] B,,2 [A,B,D]2 | E,,2 E,2 G,2[K:treble] G>F | %17
 z z/ D/ E>F E,,2 E,2 | z4 z2[K:treble] [A,B,D]2 | z z/ =E/[K:treble] F>G[K:bass] B,,2 [B,,D,]2 | %20
 E,,2 E,2 G,2[K:treble] G>A | z z/ =A/ E,>D, C,2 G,2 | F,,2 [F,A,C]2 F,,2 F,2 | %23
 z z/[K:treble] _G/ =G>A[K:bass] B,,2 A,2 | E,,2 B,,2 E,,2 z2 |] %25
V:3
 x8 | x8 | x8 | x8 | x8 | x8 | x8 |[M:2/4] x4 |[M:11/16] x11/2 |[M:4/4] E,,2 [E,G,B,]2 z4 | %10
 F,,2 F,2 B,,2[K:treble] A>G | B,,2[K:treble] [A,B,D]2[K:bass] z4 | x6[K:treble] x2 | %13
 E,,2[K:treble] [G,B,E]2[K:bass] z4 | z4 z2[K:treble] [A,B,D]2 | %15
 B,,2[K:treble] [A,B,D]2[K:bass] z4 | x6[K:treble] x2 | E,,2 [E,G,B,]2 z4 | %18
 F,,2 F,2 B,,2[K:treble] A>G | B,,2[K:treble] [A,B,D]2[K:bass] z4 | x6[K:treble] x2 | E,,2 z2 z4 | %22
 x8 | B,,2[K:treble] [G,B,E]2[K:bass] z4 | x8 |] %25
V:4
 x8 | x8 | x8 | x8 | x8 | x8 | x8 |[M:2/4] x4 |[M:11/16] x11/2 |[M:4/4] x8 | z2 B,2 z4 | x8 | %12
 z2 [G,B,]2 [B,E]2 e>f | x8 | [Af]2 z2[K:bass] B,,2[K:treble] f>g | x8 | z2 [G,B,]2 [B,E]2 B>A | %17
 x8 | z2 [DA]4 z2 | x8 | z2 [G,B,]2 [B,E]2 e>f | x8 | x8 | x8 | z4[K:bass] E,2 z2 |] %25

